X:1
T:[ID 7-82]
T:[ID 7-82]
T:Bezeichnung standardisiert: Menuet [mit Trio] Men. Con Trio
T:Urheber unbekannt Datum in der hier transkribierten schriftlichen Quelle: 1776 - 1791
C:Urheber unbekannt
C:Datum in der hier transkribierten schriftlichen Quelle: 1776 - 1791
L:1/8
M:3/4
K:G
V:1 treble 
V:1
 d2 | g2 d2 B2 | d2 B2 G2 | A2 ABcA | B4 d2 | g2 d2 B2 | d2 B2 G2 | A2 AcBA | G4 :: dc | B2 BcdB | %11
 c4 cB | A2 ABcA | B4 d2 | g2 d2 B2 | d2 B2 G2 | A2 AcBA | G4 :|[M:3/4]"^Trio" !fermata!D2 | %19
 GFGABG | c4 B2 | A2 AGFG | A4 D2 | GFGABG | c4 B2 | A2 AcBA | G4 :: d2 | gfedcB | A2 A2 B2 | %30
 c2 cBAG | A4 D2 | GFGABG | c2 c2 B2 | A2 AcBA | G4 :| %36

